material/.icons/material/email-multiple.svg

<svg xmlns="http://www.w3.org/2000/svg" viewBox="0 0 24 24"><path d="M22 6V4l-8 5-8-5v2l8 5 8-5m0-4a2 2 0 012 2v12a2 2 0 01-2 2H6a2 2 0 01-2-2V4c0-1.11.89-2 2-2h16M2 6v14h18v2H2a2 2 0 01-2-2V6h2z"/></svg>

<?xml version="1.0" encoding="UTF-8"?><!DOCTYPE svg PUBLIC "-//W3C//DTD SVG 1.1//EN" "http://www.w3.org/Graphics/SVG/1.1/DTD/svg11.dtd"><svg xmlns="http://www.w3.org/2000/svg" xmlns:xlink="http://www.w3.org/1999/xlink" version="1.1" id="mdi-email-multiple" width="24" height="24" viewBox="0 0 24 24"><path d="M22,6V4L14,9L6,4V6L14,11L22,6M22,2A2,2 0 0,1 24,4V16A2,2 0 0,1 22,18H6C4.89,18 4,17.1 4,16V4C4,2.89 4.89,2 6,2H22M2,6V20H20V22H2A2,2 0 0,1 0,20V6H2Z" /></svg>
